Resources/Icons/PCGEx_Pin_IN_TexParam.svg

<?xml version="1.0" encoding="UTF-8"?>
<svg xmlns="http://www.w3.org/2000/svg" viewBox="0 0 100 100">
  <defs>
    <style>
      .cls-1 {
        fill: #ffa627;
      }

      .cls-2 {
        opacity: .5;
      }

      .cls-3 {
        opacity: .7;
      }
    </style>
  </defs>
  <g id="Layer_25" data-name="Layer 25">
    <g class="cls-2">
      <path d="M93.27,44.07v29.45c0,1.77-1.43,3.2-3.2,3.2h-30.6c.6.96,1.66,1.6,2.87,1.6h28.5c1.88,0,3.4-1.52,3.4-3.4v-28.5c0-.92-.37-1.75-.96-2.36ZM90.07,43.03v-2.88h-16.68v16.68h16.68v-13.8ZM90.07,73.52h-16.68v-16.68h-16.68v16.68h33.37Z"/>
      <path class="cls-1" d="M90.07,36.95h-33.37c-1.77,0-3.2,1.43-3.2,3.2v33.37c0,1.77,1.43,3.2,3.2,3.2h33.37c1.77,0,3.2-1.43,3.2-3.2v-33.37c0-1.77-1.43-3.2-3.2-3.2ZM56.7,73.52v-16.68h16.68v-16.68h16.68v16.68h-16.68v16.68"/>
    </g>
  </g>
  <g id="icons_50" data-name="icons 50">
    <g class="cls-3">
      <path d="M86.12,37.67v36.81c0,2.21-1.79,4-4,4h-38.25c.75,1.2,2.07,2,3.59,2h35.62c2.34,0,4.24-1.9,4.24-4.24v-35.62c0-1.15-.46-2.18-1.2-2.95ZM82.12,36.38v-3.6h-20.85v20.85h20.85v-17.25ZM82.12,74.49h-20.85v-20.85h-20.85v20.85h41.71Z"/>
      <path class="cls-1" d="M82.12,28.78h-41.71c-2.21,0-4,1.79-4,4v41.71c0,2.21,1.79,4,4,4h41.71c2.21,0,4-1.79,4-4v-41.71c0-2.21-1.79-4-4-4ZM40.41,74.49v-20.85h20.85v-20.85h20.85v20.85h-20.85v20.85"/>
    </g>
  </g>
  <g id="Layer_5" data-name="Layer 5">
    <g>
      <path d="M76.18,29.43v46.02c0,2.76-2.24,5-5,5H23.37c.94,1.5,2.59,2.5,4.49,2.5h44.53c2.93,0,5.3-2.38,5.3-5.3v-44.53c0-1.43-.57-2.73-1.5-3.69ZM71.18,27.82v-4.5h-26.07v26.07h26.07v-21.57ZM45.12,75.45v-26.07h-26.07v26.07h3.5"/>
      <path class="cls-1" d="M71.18,18.32H19.05c-2.76,0-5,2.24-5,5v52.14c0,2.76,2.24,5,5,5h52.14c2.76,0,5-2.24,5-5V23.32c0-2.76-2.24-5-5-5ZM19.05,75.45v-26.07h26.07v-26.07h26.07v26.07h-26.07v26.07"/>
    </g>
  </g>
</svg>

<svg xmlns="http://www.w3.org/2000/svg" viewBox="0 0 100 100"><defs><style>.cls-1{opacity:0.5;}.cls-2{fill:#ffa627;}.cls-3{opacity:0.7;}</style></defs><g id="Layer_25" data-name="Layer 25"><g class="cls-1"><path d="M93.27,44.07V73.52a3.2,3.2,0,0,1-3.2,3.2H59.47a3.37,3.37,0,0,0,2.87,1.6H90.83a3.4,3.4,0,0,0,3.4-3.4V46.43A3.39,3.39,0,0,0,93.27,44.07Zm-3.2-1V40.15H73.39V56.83H90.07Zm0,30.49H73.39V56.83H56.7V73.52H90.07Z"/><path class="cls-2" d="M90.07,37H56.7a3.2,3.2,0,0,0-3.2,3.2V73.52a3.2,3.2,0,0,0,3.2,3.2H90.07a3.2,3.2,0,0,0,3.2-3.2V40.15A3.2,3.2,0,0,0,90.07,37ZM56.7,73.52V56.83H73.39V40.15H90.07V56.83H73.39V73.52"/></g></g><g id="icons_50" data-name="icons 50"><g class="cls-3"><path d="M86.12,37.67V74.49a4,4,0,0,1-4,4H43.87a4.22,4.22,0,0,0,3.59,2H83.08a4.24,4.24,0,0,0,4.24-4.24V40.62A4.25,4.25,0,0,0,86.12,37.67Zm-4-1.29v-3.6H61.27V53.63H82.12Zm0,38.11H61.27V53.63H40.41V74.49H82.12Z"/><path class="cls-2" d="M82.12,28.78H40.41a4,4,0,0,0-4,4V74.49a4,4,0,0,0,4,4H82.12a4,4,0,0,0,4-4V32.78A4,4,0,0,0,82.12,28.78ZM40.41,74.49V53.63H61.27V32.78H82.12V53.63H61.27V74.49"/></g></g><g id="Layer_5" data-name="Layer 5"><path d="M76.18,29.43v46a5,5,0,0,1-5,5H23.37A5.27,5.27,0,0,0,27.85,83H72.38a5.3,5.3,0,0,0,5.3-5.3V33.12A5.29,5.29,0,0,0,76.18,29.43Zm-5-1.61v-4.5H45.12V49.38H71.18ZM45.12,75.45V49.38H19.05V75.45h3.5"/><path class="cls-2" d="M71.18,18.32H19.05a5,5,0,0,0-5,5V75.45a5,5,0,0,0,5,5H71.18a5,5,0,0,0,5-5V23.32A5,5,0,0,0,71.18,18.32ZM19.05,75.45V49.38H45.12V23.32H71.18V49.38H45.12V75.45"/></g></svg>
